!!!COM:	Rachmaninoff, Sergei
!!!CDT:	1873/04/01–1943/03/28
!!!OTL@RU:	Vzbrannoy voyevode
!!!OTL@EN:	To Thee, Victorious Leader
!!!OPS:	Op. 37
!!!ONM:	No. 15
!!!CNT:	Greek Chant
**kern	**kern	**kern	**kern	**kern	**kern	**kern	**kern
*part8	*part7	*part6	*part5	*part4	*part3	*part2	*part1
*staff8	*staff7	*staff6	*staff5	*staff4	*staff3	*staff2	*staff1
*I"Bass 2	*I"Bass 1	*I"Tenor 2	*I"Tenor 1	*I"Alto 2	*I"Alto 1	*I"Soprano 2	*I"Soprano 1
*I'B 2	*I'B 1	*I'T 2	*I'T 1	*I'A 2	*I'A 1	*I'S 2	*I'S 1
*clefF4	*clefF4	*clefGv2	*clefGv2	*clefG2	*clefG2	*clefG2	*clefG2
*k[]	*k[]	*k[]	*k[]	*k[]	*k[]	*k[]	*k[]
*C:	*C:	*C:	*C:	*C:	*C:	*C:	*C:
*M4/4	*M4/4	*M4/4	*M4/4	*M4/4	*M4/4	*M4/4	*M4/4
=1	=1	=1	=1	=1	=1	=1	=1
1r	1r	1r	1r	4cc	4cc	4cc	4ee
.	.	.	.	4a	4a	8ccL	8eeL
.	.	.	.	.	.	8bJ	8ddJ
.	.	.	.	4g	4g	8ccL	8eeL
.	.	.	.	.	.	8bJ	8ddJ
.	.	.	.	8eL	8eL	4a	8ccL
.	.	.	.	8fJ	8fJ	.	8ddJ
=2	=2	=2	=2	=2	=2	=2	=2
1r	1r	8cL	8cL	2g	2g	8ccL	8eeL
.	.	8dJ	8dJ	.	.	8b	8dd
.	.	4e	4e	.	.	8a	8cc
.	.	.	.	.	.	8gJ	8bJ
.	.	2G	2d	2g	2g	2b	2dd
=3	=3	=3	=3	=3	=3	=3	=3
4GG	4D	4d	4d	4.g	4.g	4.b	4.dd
4GG	8DL	4d	4d	.	.	.	.
.	8EJ	.	.	8e	8e	8a	8cc
4GG	4D	4d	4d	4.g	4.g	4.b	4.dd
4GG	8FL	4c	4c	.	.	.	.
.	8EJ	.	.	8e	8e	8a	8cc
=4	=4	=4	=4	=4	=4	=4	=4
2GG	8DL	4d	4d	4g	4g	4b	4dd
.	8E	.	.	.	.	.	.
.	8D	4e	4e	8dL	8dL	8gL	8bL
.	8CJ	.	.	8eJ	8eJ	8aJ	8ccJ
[2G	[2G	4f	4f	4f	4f	8bL	8ddL
.	.	.	.	.	.	8gJ	8bJ
.	.	8eL	8eL	4g	4g	8aL	8ccL
.	.	8fJ	8fJ	.	.	8bJ	8ddJ
=5	=5	=5	=5	=5	=5	=5	=5
!!pagebreak:original
2G]	2G]	4g	4g	4cc	2cc	8ccL	8eeL
.	.	.	.	.	.	8dd	8dd
.	.	8gL	8gL	8bL	.	8ee	8ee
.	.	8fJ	8fJ	8aJ	.	8ffJ	8ffJ
8GL	8GL	4e	4e	4g	4cc	8ggL	8ggL
8CJ	8CJ	.	.	.	.	8eeJ	8eeJ
8EL	8EL	4c	4c	4e	4g	4cc	4cc
8GJ	8GJ	.	.	.	.	.	.
=6	=6	=6	=6	=6	=6	=6	=6
2c	2c	4.f	2a	2cc	2cc	4.ff	2aa
.	.	8e	.	.	.	8ee	.
4G	4G	4e	4g	4cc	4cc	4ee	4gg
4G	4G	4d	4f	4b	4b	4dd	4ff
=7	=7	=7	=7	=7	=7	=7	=7
*M2/4	*M2/4	*M2/4	*M2/4	*M2/4	*M2/4	*M2/4	*M2/4
2C	2G	2e	2e	2cc	2cc	2ee	2ee
=8	=8	=8	=8	=8	=8	=8	=8
*M4/4	*M4/4	*M4/4	*M4/4	*M4/4	*M4/4	*M4/4	*M4/4
1r	1r	4r	4r	2g	2g	4.cc	4.ee
.	.	4c	4c	.	.	.	.
.	.	.	.	.	.	8b	8dd
.	.	8cL	8cL	4g	4g	4cc	4ee
.	.	8dJ	8dJ	.	.	.	.
.	.	4e	4e	4g	4g	4a	4cc
=9	=9	=9	=9	=9	=9	=9	=9
2GG	2D	4d	4d	8fL	8fL	8bL	8ddL
.	.	.	.	8eJ	8eJ	8aJ	8ccJ
.	.	4d	4d	8fL	8fL	8gL	8bL
.	.	.	.	8eJ	8eJ	8aJ	8ccJ
4GG	4D	4d	4d	8fL	8fL	8gL	8bL
.	.	.	.	8eJ	8eJ	8aJ	8ccJ
4GG	4A	4c	4c	8dL	8fL	4a	8aL
.	.	.	.	8eJ	8eJ	.	8ccJ
=10	=10	=10	=10	=10	=10	=10	=10
!!pagebreak:original
4GG	4G	4d	4d	8fL	8fL	8bL	8ddL
.	.	.	.	8e	8e	8gJ	8b
4GG	8FL	4c	4c	8d	8f	4a	8a
.	8EJ	.	.	8eJ	8eJ	.	8ccJ
4GG	4D	4d	4d	8dL	8dL	8gL	8bL
.	.	.	.	8fJ	8fJ	8aJ	8ddJ
8GL	8GL	4e	4e	4g	4g	8bL	8eeL
8AJ	8AJ	.	.	.	.	8aJ	8ccJ
=11	=11	=11	=11	=11	=11	=11	=11
[1G	[1G	4f	4f	2g	4g	4b	8ddL
.	.	.	.	.	.	.	8b
.	.	8eL	8eL	.	8aL	8ccL	8cc
.	.	8fJ	8fJ	.	8bJ	8ddJ	8ddJ
.	.	4g	4g	4cc	4cc	8eeL	8eeL
.	.	.	.	.	.	8ddJ	8ddJ
.	.	8gL	8gL	8bL	4cc	8eeL	8eeL
.	.	8fJ	8fJ	8aJ	.	8ffJ	8ffJ
=12	=12	=12	=12	=12	=12	=12	=12
8GL]	8GL]	4e	4e	4g	4cc	4gg	4gg
8B-XJ	8B-XJ	.	.	.	.	.	.
4.A	4.A	2f	2f	[2.cc	[2.cc	4.ff	4.ff
8c	8c	.	.	.	.	8dd	8dd
4B-	4B-	4g	4g	.	.	8eeL	8eeL
.	.	.	.	.	.	8ccJ	8ccJ
=13	=13	=13	=13	=13	=13	=13	=13
4A	4A	8fL	8fL	4cc]	4cc]	8ddL	8ddL
.	.	8eJ	8eJ	.	.	8eeJ	8eeJ
4G	[4G	4d	4f	4b	4b	4dd	4ff
[2C	2G_	[2c	[2e	2cc	2cc	2ee	2ee
=14	=14	=14	=14	=14	=14	=14	=14
!!pagebreak:original
4C]	4G]	4c]	4e]	4ee	4ee	4gg	4gg
4r	4r	4r	4r	8eeL	8eeL	8ggL	8ggL
.	.	.	.	8ddJ	8ddJ	8ffJ	8ffJ
4B-X	4B-X	4g	4g	2cc#X	2cc#X	2ee	2ee
8AL	8AL	8fL	8fL	.	.	.	.
8GJ	8GJ	8eJ	8eJ	.	.	.	.
=15	=15	=15	=15	=15	=15	=15	=15
8FL	8FL	8dL	8dL	4dd	4dd	4ff	4ff
8EJ	8EJ	8cJ	8cJ	.	.	.	.
4D	4D	4B	4B	8ddL	8ddL	8ffL	8ffL
.	.	.	.	8ccJ	8ccJ	8eeJ	8eeJ
4G	4G	4f	4f	4b	4b	4dd	4dd
4F	4F	8fL	8fL	4a	4a	4dd	4dd
.	.	8eJ	8eJ	.	.	.	.
=16	=16	=16	=16	=16	=16	=16	=16
4E	4E	8dL	8dL	8eL	8bL	4dd	4dd
.	.	8cJ	8cJ	8fJ	8aJ	.	.
4D	4D	8BL	8BL	8eL	8g#XL	4dd	4dd
.	.	8cJ	8cJ	8fJ	8aJ	.	.
8CL	8CL	4d	4d	2e	4g#	4dd	4dd
8BBJ	8BBJ	.	.	.	.	.	.
4AA	4AA	4c	4c	.	8aL	4cc	4cc
.	.	.	.	.	8gnJ	.	.
=17	=17	=17	=17	=17	=17	=17	=17
4A	4A	4c	4c	4f	4f	4dd	4dd
4G	4G	4c	4c	4b-X	4b-X	4ee	4ee
4F	4F	8cL	8cL	8aL	8aL	4ff	4ff
.	.	8dJ	8dJ	8b-J	8b-J	.	.
8GL	8GL	8eL	8eL	8gL	8gL	8eeL	8eeL
8FJ	8FJ	8dJ	8dJ	8aJ	8aJ	8ffJ	8ffJ
=18	=18	=18	=18	=18	=18	=18	=18
!!pagebreak:original
4E	4E	4c	4c	8b-XL	8b-XL	4gg	4gg
.	.	.	.	8gJ	8gJ	.	.
2A	2A	2f	2f	[4cc	[4cc	8ffL	8ffL
.	.	.	.	.	.	8eeJ	8eeJ
.	.	.	.	8ccL]	8ccL]	4.ff	4.ff
.	.	.	.	8aJ	8aJ	.	.
4A	4A	4c	4c	8fL	8fL	.	.
.	.	.	.	8cJ	8cJ	[8ee	[8ee
=19	=19	=19	=19	=19	=19	=19	=19
4G	4G	4c	4c	8eL	8eL	4ee]	4ee]
.	.	.	.	8gJ	8gJ	.	.
4GG	4G	4d	4f	4b	4b	4dd	4dd
2C	2G	2c	2e	4cc	4cc	2ee	2ee
.	.	.	.	8eL	8eL	.	.
.	.	.	.	8fJ	8fJ	.	.
=20	=20	=20	=20	=20	=20	=20	=20
4r	4r	4c#X	4e	8gL	8gL	8eeL	8eeL
.	.	.	.	8a	8a	8ffJ	8ffJ
4AA	8EL	2c#	2e	8b-X	8b-X	2gg	2gg
.	8FJ	.	.	8aJ	8aJ	.	.
4AA	8GL	.	.	4.b-	4.b-	.	.
.	8AJ	.	.	.	.	.	.
[4AA	[4B-X	4c#	4e	.	.	4gg	4gg
.	.	.	.	8a	8a	.	.
=21	=21	=21	=21	=21	=21	=21	=21
4AA]	8B-L]	4c#X	4e	8gL	8gL	8ggL	8ggL
.	8AJ	.	.	8aJ	8aJ	8ffJ	8ffJ
4AA	8GL	8GL	2c#X	8b-XL	2b-X	4.ee	4.ee
.	8FJ	8AJ	.	8aJ	.	.	.
4AA	8EL	4B-X	.	4g	.	.	.
.	8DJ	.	.	.	.	8ff	8ff
4AA	4C#X	4A	4c#	8aL	8aL	8ffL	8ffL
.	.	.	.	8gJ	8gJ	8eeJ	8eeJ
=22	=22	=22	=22	=22	=22	=22	=22
!!pagebreak:original
4D	4D	4A	4d	4f	4f	4dd	4dd
4D	4D	4A	8dL	4f	4f	4dd	4dd
.	.	.	8eJ	.	.	.	.
4E	4E	4A	4d	4g	4g	4dd	4dd
4F	4F	4A	8dL	4a	4a	4dd	4dd
.	.	.	8eJ	.	.	.	.
=23	=23	=23	=23	=23	=23	=23	=23
4G	4G	4B-X	8dL	4.b-X	4.b-X	4dd	4dd
.	.	.	8e	.	.	.	.
4A	4A	4c	8f	.	.	4cc	4cc
.	.	.	8eJ	8a	8a	.	.
8B-XL	8B-XL	4d	4d	8gL	8gL	4dd	4dd
8AJ	8AJ	.	.	8aJ	8aJ	.	.
4G	4G	8cL	8cL	4b-	4b-	4ee	4ee
.	.	8B-J	8B-XJ	.	.	.	.
=24	=24	=24	=24	=24	=24	=24	=24
8FL	8FL	2.c	2.c	4a	4a	4ff	4ff
8AJ	8AJ	.	.	.	.	.	.
8GL	8GL	.	.	8b-XL	8b-XL	8eeL	8eeL
8FJ	8FJ	.	.	8aJ	8aJ	8ffJ	8ffJ
8EL	8EL	.	.	4g	4g	4gg	4gg
8GJ	8GJ	.	.	.	.	.	.
[4c	[4c	8dL	8dL	8aL	8aL	8ffL	8ffL
.	.	8eJ	8eJ	8gJ	8gJ	8eeJ	8eeJ
=25	=25	=25	=25	=25	=25	=25	=25
8cL]	8cL]	2f	2f	2a	2a	4.ff	4.ff
8AJ	8AJ	.	.	.	.	.	.
8F	8F	.	.	.	.	.	.
8C	8C	.	.	.	.	[8ee	[8ee
8EL	8EL	4c	4c	4g	4g	4ee]	4ee]
8GJ	8GJ	.	.	.	.	.	.
4B	4B	4d	4d	4g	4g	4dd	4dd
=26	=26	=26	=26	=26	=26	=26	=26
2.c	2.c	2.e	2.e	4cc	4cc	2.ee	2.ee
.	.	.	.	8ccL	8ccL	.	.
.	.	.	.	8ddJ	8ddJ	.	.
.	.	.	.	8ccL	8ccL	.	.
.	.	.	.	8bJ	8bJ	.	.
4A	4A	4d	4f	4cc	4cc	4ff	4ff
=27	=27	=27	=27	=27	=27	=27	=27
!!pagebreak:original
2B-X	2B-X	2e	2g	8ccL	8ccL	2gg	2gg
.	.	.	.	8ddJ	8ddJ	.	.
.	.	.	.	8ccL	8ccL	.	.
.	.	.	.	8bJ	8bJ	.	.
4BB-X	4B-	4c	4g	4cc	4cc	4ee	4ee
4AA	4A	4c	4f	8fL	8fL	4ff	4ff
.	.	.	.	8gJ	8gJ	.	.
=28	=28	=28	=28	=28	=28	=28	=28
1FF	2C	2c	8dL	2a	2a	8ffL	8aaL
.	.	.	8e	.	.	8ee	8gg
.	.	.	8f	.	.	8dd	8ff
.	.	.	8gJ	.	.	8ccJ	8eeJ
.	2D	4B-X	8fL	8b-XL	8b-XL	8ddL	8ddL
.	.	.	8eJ	8cc	8cc	8ee	8ee
.	.	4Bn	4d	8a	8a	8ff	8ff
.	.	.	.	8bnJ	8bnJ	8ggJ	8ggJ
=29	=29	=29	=29	=29	=29	=29	=29
4AA	4E	4c	4e	4a	4cc	4ee	4ee
4EE	4E	4G#X	4d	4g#X	4b	4dd	4dd
2AA	2E	2A	2c	2a	2a	2cc	2cc
=30	=30	=30	=30	=30	=30	=30	=30
!!pagebreak:original
*M6/4	*M6/4	*M6/4	*M6/4	*M6/4	*M6/4	*M6/4	*M6/4
4A	4A	4c	4e	8aL	4cc	4ee	4ee
.	.	.	.	8gJ	.	.	.
8DL	8DL	4c	4d	4f#X	4cc	4dd	4ff#X
8AJ	8AJ	.	.	.	.	.	.
2G	2G	2d	2d	8g	8g	2dd	8gg
.	.	.	.	4a	4a	.	4aa
.	.	.	.	8fn	8f	.	8ffn
4G	4G	8e	8e	4g	4g	8ee	2gg
.	.	4f	4f	.	.	4ff	.
8AL	8AL	.	.	8aL	8aL	.	.
8BJ	8BJ	8d	8d	8bJ	8bJ	8dd	.
=31	=31	=31	=31	=31	=31	=31	=31
*M4/4	*M4/4	*M4/4	*M4/4	*M4/4	*M4/4	*M4/4	*M4/4
4c	4c	4e	4g	4cc	4cc	4ee	4gg
8cL	8cL	4e	4g	4cc	4cc	4ee	4gg
8dJ	8dJ	.	.	.	.	.	.
8cL	8cL	4d	4g	4g	4g	4dd	4gg
8BJ	8BJ	.	.	.	.	.	.
8AL	8AL	8cL	4g	8aL	8aL	8ccL	4gg
8GJ	8GJ	8dJ	.	8bJ	8bJ	8ddJ	.
=32	=32	=32	=32	=32	=32	=32	=32
4c	4c	8eL	[4g	[2cc	[2cc	8eeL	8ggL
.	.	8f	.	.	.	8dd	8ff
8BL	8BL	8e	8gL]	.	.	8cc	8ee
8AJ	8AJ	8dJ	8fJ	.	.	8ddJ	8ffJ
8GL	8GL	8cL	8eL	8ccL]	8ccL]	8eeL	8ggL
8FJ	8FJ	8BJ	8dJ	8gJ	8gJ	8ff	8aaJ
8EL	8EL	8cL	8eL	8aL	8aL	8gg	8ggL
8DJ	8DJ	8dJ	8fJ	8bJ	8bJ	8ffJ	8ffJ
=33	=33	=33	=33	=33	=33	=33	=33
!!pagebreak:original
*M6/4	*M6/4	*M6/4	*M6/4	*M6/4	*M6/4	*M6/4	*M6/4
8EL	8EL	4c	4g	4cc	4cc	8eeL	8eeL
8FJ	8FJ	.	.	.	.	8ddJ	8ddJ
4G	4G	4B	8eL	4b	4b	8eeL	8eeL
.	.	.	8dJ	.	.	8ffJ	8ffJ
8AL	8AL	8cL	8cL	8ccL	8ccL	4.gg	4.gg
8BJ	8BJ	8d	8d	8b	8b	.	.
8cL	8cL	8e	8e	8a	8a	.	.
8dJ	8dJ	8fJ	8fJ	8ddJ	8ddJ	8ff	8ff
4e	4e	4g	4g	4.cc	4.cc	4gg	4gg
4A	4A	4e	4e	.	.	8aaL	8aaL
.	.	.	.	8b	8b	8ggJ	8ggJ
=34	=34	=34	=34	=34	=34	=34	=34
*M4/4	*M4/4	*M4/4	*M4/4	*M4/4	*M4/4	*M4/4	*M4/4
4.c	4.c	4.f	4.f	4.a	4.a	4ff	4ff
.	.	.	.	.	.	8eeL	8eeL
8A	8A	8c	8c	8f	8f	8ddJ	8ddJ
8cL	8cL	8eL	8eL	8aL	8aL	4.ee	4.ee
8A	8A	8cJ	8cJ	8e	8e	.	.
8E	8E	4A	4A	8c	8c	.	.
8CJ	8CJ	.	.	8eJ	8eJ	8gg	8gg
=35	=35	=35	=35	=35	=35	=35	=35
4.c	4.c	4.f	4.f	4.a	4.a	4ff	4ff
.	.	.	.	.	.	8eeL	8eeL
8A	8A	8c	8c	8f	8f	8ddJ	8ddJ
8cL	8cL	8eL	8eL	8aL	8aL	4ee	4ee
8A	8A	8cJ	8cJ	8e	8e	.	.
8E	8E	[4A	4A	8c	8c	8ddL	8ddL
8CJ	8CJ	.	.	8eJ	8eJ	8ccJ	8ccJ
=36	=36	=36	=36	=36	=36	=36	=36
2D	2D	2A]	2d	2g	2g	2dd	2dd
2GG	2D	4G	4c	2f	2f	4cc	4cc
.	.	4F	4B	.	.	4b	4b
=37	=37	=37	=37	=37	=37	=37	=37
1CC; 1GG	1C;	1E;	1c;	1e;	1e;	1cc;	1cc;
==	==	==	==	==	==	==	==
*-	*-	*-	*-	*-	*-	*-	*-
